Newaita-dark/actions/24/align-horizontal-center.svg

<svg height="24" viewBox="0 0 24 24" width="24" xmlns="http://www.w3.org/2000/svg"><g fill="#e0e0e0"><path d="m11.90625 19.039062c.273438 0 .496094.222657.496094.496094v1.988282c0 .273437-.222656.496093-.496094.496093s-.496094-.222656-.496094-.496093v-1.988282c0-.273437.222656-.496094.496094-.496094zm0 0"/><path d="m11.90625 2.171875c.273438 0 .496094.222656.496094.496094v1.984375c0 .273437-.222656.496094-.496094.496094s-.496094-.222657-.496094-.496094v-1.984375c0-.273438.222656-.496094.496094-.496094zm0 0"/><path d="m11.410156 10.109375h.992188v3.472656h-.992188zm0 0"/><path d="m5.953125 12.09375c-1.097656 0-1.984375.886719-1.984375 1.984375v3.96875c0 1.101563.886719 1.984375 1.984375 1.984375h11.90625c1.101563 0 1.984375-.882812 1.984375-1.984375v-3.96875c0-1.097656-.882812-1.984375-1.984375-1.984375zm.496094 1.984375h10.914062c.277344 0 .496094.222656.496094.496094v2.976562c0 .277344-.21875.496094-.496094.496094h-10.914062c-.273438 0-.496094-.21875-.496094-.496094v-2.976562c0-.273438.222656-.496094.496094-.496094zm0 0"/><path d="m8.929688 3.660156c-1.097657 0-1.984376.886719-1.984376 1.984375v2.976563c0 1.101562.886719 1.984375 1.984376 1.984375h5.953124c1.101563 0 1.984376-.882813 1.984376-1.984375v-2.976563c0-1.097656-.882813-1.984375-1.984376-1.984375zm.496093 1.984375h4.960938c.277343 0 .496093.222657.496093.496094v1.984375c0 .277344-.21875.496094-.496093.496094h-4.960938c-.273437 0-.496093-.21875-.496093-.496094v-1.984375c0-.273437.222656-.496094.496093-.496094zm0 0"/></g></svg>

<?xml version="1.0" encoding="UTF-8"?>
<svg xmlns="http://www.w3.org/2000/svg" xmlns:xlink="http://www.w3.org/1999/xlink" width="24px" height="24px" viewBox="0 0 24 24" version="1.1">
<g id="surface1">
<path style=" stroke:none;fill-rule:nonzero;fill:rgb(87.843138%,87.843138%,87.843138%);fill-opacity:1;" d="M 11.90625 19.039062 C 12.179688 19.039062 12.402344 19.261719 12.402344 19.535156 L 12.402344 21.523438 C 12.402344 21.796875 12.179688 22.019531 11.90625 22.019531 C 11.632812 22.019531 11.410156 21.796875 11.410156 21.523438 L 11.410156 19.535156 C 11.410156 19.261719 11.632812 19.039062 11.90625 19.039062 Z M 11.90625 19.039062 "/>
<path style=" stroke:none;fill-rule:nonzero;fill:rgb(87.843138%,87.843138%,87.843138%);fill-opacity:1;" d="M 11.90625 2.171875 C 12.179688 2.171875 12.402344 2.394531 12.402344 2.667969 L 12.402344 4.652344 C 12.402344 4.925781 12.179688 5.148438 11.90625 5.148438 C 11.632812 5.148438 11.410156 4.925781 11.410156 4.652344 L 11.410156 2.667969 C 11.410156 2.394531 11.632812 2.171875 11.90625 2.171875 Z M 11.90625 2.171875 "/>
<path style=" stroke:none;fill-rule:nonzero;fill:rgb(87.843138%,87.843138%,87.843138%);fill-opacity:1;" d="M 11.410156 10.109375 L 12.402344 10.109375 L 12.402344 13.582031 L 11.410156 13.582031 Z M 11.410156 10.109375 "/>
<path style=" stroke:none;fill-rule:nonzero;fill:rgb(87.843138%,87.843138%,87.843138%);fill-opacity:1;" d="M 5.953125 12.09375 C 4.855469 12.09375 3.96875 12.980469 3.96875 14.078125 L 3.96875 18.046875 C 3.96875 19.148438 4.855469 20.03125 5.953125 20.03125 L 17.859375 20.03125 C 18.960938 20.03125 19.84375 19.148438 19.84375 18.046875 L 19.84375 14.078125 C 19.84375 12.980469 18.960938 12.09375 17.859375 12.09375 Z M 6.449219 14.078125 L 17.363281 14.078125 C 17.640625 14.078125 17.859375 14.300781 17.859375 14.574219 L 17.859375 17.550781 C 17.859375 17.828125 17.640625 18.046875 17.363281 18.046875 L 6.449219 18.046875 C 6.175781 18.046875 5.953125 17.828125 5.953125 17.550781 L 5.953125 14.574219 C 5.953125 14.300781 6.175781 14.078125 6.449219 14.078125 Z M 6.449219 14.078125 "/>
<path style=" stroke:none;fill-rule:nonzero;fill:rgb(87.843138%,87.843138%,87.843138%);fill-opacity:1;" d="M 8.929688 3.660156 C 7.832031 3.660156 6.945312 4.546875 6.945312 5.644531 L 6.945312 8.621094 C 6.945312 9.722656 7.832031 10.605469 8.929688 10.605469 L 14.882812 10.605469 C 15.984375 10.605469 16.867188 9.722656 16.867188 8.621094 L 16.867188 5.644531 C 16.867188 4.546875 15.984375 3.660156 14.882812 3.660156 Z M 9.425781 5.644531 L 14.386719 5.644531 C 14.664062 5.644531 14.882812 5.867188 14.882812 6.140625 L 14.882812 8.125 C 14.882812 8.402344 14.664062 8.621094 14.386719 8.621094 L 9.425781 8.621094 C 9.152344 8.621094 8.929688 8.402344 8.929688 8.125 L 8.929688 6.140625 C 8.929688 5.867188 9.152344 5.644531 9.425781 5.644531 Z M 9.425781 5.644531 "/>
</g>
</svg>
